X:1
T:Title
%%score ( 1 2 ) { 3 | 4 }
L:1/8
Q:1/4=100
M:4/4
K:G
V:1 treble nm="Grand Piano, Soprano"
V:2 treble 
V:3 bass nm="Grand Piano, Bass"
V:4 bass 
V:1
 z4 z2 z [B,D] | [B,D]>[B,D] [B,E][B,F] [B,G]3 [B,G] | [CG]>[CA] [CG][CE] [B,D]3 [B,D] | %3
w: 1.~I~|mean~ to~ go~ right~ on~ un|til~ the~ crown~ is~ won;~ I~|
 [B,D]>[B,D] [DG][DA] [DB][DB][DB][DB] | [^CA]>[CE] [CA][CB] [=CA]3 [B,D] | %5
w: mean~ to~ fight~ the~ fight~ of~ faith~ till~|life~ on~ earth~ is~ done.~ I'll~|
 [B,D]>[B,D] [CE][CF] [B,G]3 [CA] | [DB]>[DB] [CA][B,G] [DB]3 [Dc] | %7
w: nev er more~ turn~ back,~ de|feat~ I~ shall~ not~ know,~ For~|
 [Gd]>[Gd] [Gd][Ge] [Gd][DB][DG][EA] | [DB]>[DB] [CA][CA] [B,G]3 [DB] | D4 G4 | B4 B4 | %11
w: God~ will~ give~ me~ vic to ry~ if~|on ward~ I~ shall~ go.~ *|||
 [Gd]>[Gd] [Gd][Ge] [Gd] [GB]2 [DG] | A4 z4 | D4 G4 | B4 B4 | [Gd]>[Gd] [Gd][Ge] [Gd] [GB]2 [DG] | %16
w: |||||
 z4 G4 |] %17
w: |
V:2
 x8 | x8 | x8 | x8 | x8 | x8 | x8 | x8 | x8 | B,>B, B,E B,>B, B,[CA] | D>D DG G>G G[Gc] | x8 | %12
 D>D ^C[CE] [=CA]3 [DB] | B,>B, B,E B,>B, B,[CA] | D>D DG G>G G[Gc] | x8 | [GB]3 [DA] DE .D2 |] %17
V:3
 z4 z2 z G, | G,>G, G,E, D,3 D, | E,>=F, E,G, G,3 G, | G,>G, G,F, G,G,G,G, | G,>G, E,G, F,3 G, | %5
 G,>G, G,E, D,3 F, | G,>G, G,G, G,3 A, | B,>B, B,C B,G,G,G, | G,>G, F,F, G,3 G, | G,4 D,3 F, | %10
 G,>G, G,B, D3 A, | B,>B, B,C B, D2 B, | A,2 G,2 F,F,F,G, | G,4 D,3 F, | G,>G, G,B, D3 A, | %15
 B,>B, B,[K:treble]C B, D2 B, | D3 C B,C .B,2 |] %17
V:4
 z4 z2 z G,, | G,,>G,, G,,G,, G,,3 G,, | C,>C, C,C, G,,3 G,, | G,,>G,, B,,D, z2 z G,, | %4
 A,,>A,, A,,A,, D,3 G,, | G,,>G,, G,,G,, G,,3 D, | z4 z2 z G, | G,>G, G,G, .G,2 B,,C, | %8
 D,>D, D,D, G,,3 G,, | G,,>G,, G,,E, G,,>G,, G,,D, | z2 z G, G,3 G, | G,>G, G,G, G, G,2 G, | %12
 F,2 A,,2 D,D,D,G,, | G,,>G,, G,,E, G,,>G,, G,,D, | z2 z G, G,3 G, | G,>G, G,G, G, G,2 G, | %16
 D,3 D, G,,4 |] %17

